public/assets/img/jpg.svg

<svg height="107" viewBox="0 0 80 107" width="80" xmlns="http://www.w3.org/2000/svg"><g fill="none" fill-rule="evenodd"><path d="m66.2524531 1h-65.2524531v104.666667h78v-91.9191201z" stroke="#000" stroke-width="2"/><g fill="#000"><path d="m66.6666667 0h13.3333333v13.3333333z" transform="matrix(-1 0 0 -1 146.666666 13.333334)"/><path d="m20.4 76.6870241 14.3241203 17.9481697 24.8601821-26.6351938 13.0823643 34.020357h-65.33333337z"/><circle cx="64.333333" cy="49.666667" r="8.333333"/><path d="m8.56 22.4266667c.61333333-.96 1.2-1.76 1.8666667-2.5866667l.5333333-.0266667c.4266667.2666667 1.28.5333334 1.68.5866667.6933333.1066667.5333333.6133333.2666667 1.28-.56.3733333-2.3733334 1.6-3.76000003 2-.32-.4266667-.50666667-.88-.58666667-1.2533333zm8.8533333-.3466667c.2133334-1.9466667.4266667-3.52.5866667-5.68l-1.12.0266667c.4533333-1.7866667.88-3.5466667 1.3333333-5.3066667l2.1333334-.7733333.1066666-.48000003 1.9466667-.64c.1866667 2.93333333-.5333333 7.89333333-1.1733333 10.16000003l.4266666.48.3466667-.2933334.8.9333334-2.6933333 2.3733333c-.3466667 1.0666667-2.0266667 4.7466667-2.6666667 5.7066667l-1.3866667.1333333.0266667-4.0266667c0-1.04.88-2.08 1.3333333-2.6133333zm7.5733334-8.8 1.04-.24c.08-.3466667.2133333-.96.32-1.0666667.2133333-.24 1.68-1.2533333 1.92-1.3866666l.08-.24 1.36-.56000003-.1866667 2.69333333c1.4666667-.08 4-.16 3.8933333 1.7333333-.0533333 1.1733334-.56 3.4933334-1.0133333 4.16-.4533333.64-3.3066667 2.9333334-4.96 4.2933334l-.8533333 4.08-1.6 1.68-.5066667-.0266667c.3466667-3.2533333.96-9.9466667.9333333-11.04l-1.1466666.0533333-.0533334-.64zm2.7466666 8c2-2.16 2.6933334-3.1466667 2.72-3.76 0-.48-1.1733333-.5333333-1.8666666-.4266667zm13.0933334-10.1066667.0266666.4266667c.56.5866667 1.68 2.32 1.8933334 3.04-.2666667.4533333-.96 1.2-1.6266667 1.7333333l-.32-.96c-.64.3733334-1.36 1.3066667-1.6533333 1.8133334 2.9333333.48 4.6933333 2.08 4.7466666 3.4933333.08 2.5866667-3.84 6.5866667-4.9866666 7.4933333-.2133334.16-.4533334.2933334-.96.1333334-.72-.2133334-1.5466667-.88-1.5466667-1.36-.08-1.6533334 2.0533333-4.5333334 2.5333333-5.0133334.9333334-.4 1.4666667-.4266666 1.92-.3466666-.9066666-1.2266667-3.7066666-1.7866667-5.6266666-1.6l-.64-.64c-.2133334-1.2-.0533334-3.04.48-4.1066667.7733333-1.5733333 3.3333333-3.84 4.7466666-4.5066667zm.1066666 11.0133334c-.5333333-.2666667-2.48 3.2-2.0266666 3.9466666.7733333-.8533333 1.84-3.2266666 2.0266666-3.9466666z"/></g></g></svg>

<?xml version="1.0" encoding="UTF-8"?>
<svg width="80px" height="107px" viewBox="0 0 80 107" version="1.1" xmlns="http://www.w3.org/2000/svg" xmlns:xlink="http://www.w3.org/1999/xlink">
    <!-- Generator: Sketch 49.2 (51160) - http://www.bohemiancoding.com/sketch -->
    <title>jpg</title>
    <desc>Created with Sketch.</desc>
    <defs></defs>
    <g id="Game-UI" stroke="none" stroke-width="1" fill="none" fill-rule="evenodd">
        <g id="jpg">
            <path d="M66.2524531,1 L1,1 L1,105.666667 L79,105.666667 L79,13.7475469 L66.2524531,1 Z" id="Combined-Shape" stroke="#000000" stroke-width="2"></path>
            <polygon id="Rectangle-17-Copy" fill="#000000" transform="translate(73.333333, 6.666667) scale(-1, -1) translate(-73.333333, -6.666667) " points="66.6666667 0 80 0 80 13.3333333"></polygon>
            <polygon id="Rectangle-18" fill="#000000" points="20.4 76.6870241 34.7241203 94.6351938 59.5843024 68 72.6666667 102.020357 7.33333333 102.020357"></polygon>
            <circle id="Oval-3" fill="#000000" cx="64.3333333" cy="49.6666667" r="8.33333333"></circle>
            <path d="M8.56,22.4266667 C9.17333333,21.4666667 9.76,20.6666667 10.4266667,19.84 L10.96,19.8133333 C11.3866667,20.08 12.24,20.3466667 12.64,20.4 C13.3333333,20.5066667 13.1733333,21.0133333 12.9066667,21.68 C12.3466667,22.0533333 10.5333333,23.28 9.14666667,23.68 C8.82666667,23.2533333 8.64,22.8 8.56,22.4266667 Z M17.4133333,22.08 C17.6266667,20.1333333 17.84,18.56 18,16.4 L16.88,16.4266667 C17.3333333,14.64 17.76,12.88 18.2133333,11.12 L20.3466667,10.3466667 L20.4533333,9.86666667 L22.4,9.22666667 C22.5866667,12.16 21.8666667,17.12 21.2266667,19.3866667 L21.6533333,19.8666667 L22,19.5733333 L22.8,20.5066667 L20.1066667,22.88 C19.76,23.9466667 18.08,27.6266667 17.44,28.5866667 L16.0533333,28.72 L16.08,24.6933333 C16.08,23.6533333 16.96,22.6133333 17.4133333,22.08 Z M24.9866667,13.28 L26.0266667,13.04 C26.1066667,12.6933333 26.24,12.08 26.3466667,11.9733333 C26.56,11.7333333 28.0266667,10.72 28.2666667,10.5866667 L28.3466667,10.3466667 L29.7066667,9.78666667 L29.52,12.48 C30.9866667,12.4 33.52,12.32 33.4133333,14.2133333 C33.36,15.3866667 32.8533333,17.7066667 32.4,18.3733333 C31.9466667,19.0133333 29.0933333,21.3066667 27.44,22.6666667 L26.5866667,26.7466667 L24.9866667,28.4266667 L24.48,28.4 C24.8266667,25.1466667 25.44,18.4533333 25.4133333,17.36 L24.2666667,17.4133333 L24.2133333,16.7733333 L24.9866667,13.28 Z M27.7333333,21.28 C29.7333333,19.12 30.4266667,18.1333333 30.4533333,17.52 C30.4533333,17.04 29.28,16.9866667 28.5866667,17.0933333 L27.7333333,21.28 Z M40.8266667,11.1733333 L40.8533333,11.6 C41.4133333,12.1866667 42.5333333,13.92 42.7466667,14.64 C42.48,15.0933333 41.7866667,15.84 41.12,16.3733333 L40.8,15.4133333 C40.16,15.7866667 39.44,16.72 39.1466667,17.2266667 C42.08,17.7066667 43.84,19.3066667 43.8933333,20.72 C43.9733333,23.3066667 40.0533333,27.3066667 38.9066667,28.2133333 C38.6933333,28.3733333 38.4533333,28.5066667 37.9466667,28.3466667 C37.2266667,28.1333333 36.4,27.4666667 36.4,26.9866667 C36.32,25.3333333 38.4533333,22.4533333 38.9333333,21.9733333 C39.8666667,21.5733333 40.4,21.5466667 40.8533333,21.6266667 C39.9466667,20.4 37.1466667,19.84 35.2266667,20.0266667 L34.5866667,19.3866667 C34.3733333,18.1866667 34.5333333,16.3466667 35.0666667,15.28 C35.84,13.7066667 38.4,11.44 39.8133333,10.7733333 L40.8266667,11.1733333 Z M40.9333333,22.1866667 C40.4,21.92 38.4533333,25.3866667 38.9066667,26.1333333 C39.68,25.28 40.7466667,22.9066667 40.9333333,22.1866667 Z" id=".jpg" fill="#000000"></path>
        </g>
    </g>
</svg>
